X:1
T:The Days of Wine and Roses
C:Henry Mancini
Z:All Rights Reserved
L:1/4
M:4/4
K:F
V:1 treble nm=" " snm=" "
%%MIDI program 13
V:1
 C x3 |"Fmaj7" A4- |"Eb7" A G A c |"D7b5" d2"D7" c2- | c2 c A |"Gm7" A D D2- | D2 c A | %7
w: The|days|* of wine and|ro- ses,|_ laugh and|run a- way,|_ like a|
"Bbm7" A _D D2- |"Eb7" _D2 A G |"Am7" G C D E |"Dm7" G F A d |"Gm7" c3 B |"C7" c B A G | %13
w: child at play.|_ Through a|mea- dow land to-|ward a clo- sing|door. A|door marked "ne- ver-|
"Em7b5" A3"A7b9" E | G"Dm7" F"G7" E D |"Gm7" G4- |"C7" G3 C ||"Fmaj7" A4 |"Eb7" z G A c | %19
w: more" that|was- n't there be-|fore.|_ The|lone-|ly night dis-|
"D7b5" d2"D7" c2- | c2 c A |"Gm7" A D D2- | D2 c A |"Bbm7" A _D D2- |"Eb7" _D2 A G |"Am7" G C D E | %26
w: clo- ses|_ just a|pass- ing breeze|_ filled with|me- mo- ries.|_ Of the|gol- den smile that|
"Dm7" F G A c |"Bm7b5" e4- |"Bb7" e3 d |"Am7" c A"Dm7" G F |"Gm7" A A2"C7" D |"F6" F4- | %32
w: in- tro- duced me|to.|_ The|days of wine and|ro- ses and|you.|
"Gm7" F3"C7" z |] %33
w: _|

